svgs/light/square-envelope.svg

<svg xmlns="http://www.w3.org/2000/svg" viewBox="0 0 448 512"><!-- Font Awesome Pro 6.0.0-alpha2 by @fontawesome - https://fontawesome.com License - https://fontawesome.com/license (Commercial License) --><path d="M384 32H64C28.654 32 0 60.654 0 96V416C0 451.346 28.654 480 64 480H384C419.346 480 448 451.346 448 416V96C448 60.654 419.346 32 384 32ZM416 416C416 433.645 401.645 448 384 448H64C46.355 448 32 433.645 32 416V96C32 78.355 46.355 64 64 64H384C401.645 64 416 78.355 416 96V416ZM320 128H128C92.654 128 64 156.654 64 192V320C64 355.346 92.654 384 128 384H320C355.346 384 384 355.346 384 320V192C384 156.654 355.346 128 320 128ZM352 320C352 337.645 337.645 352 320 352H128C110.355 352 96 337.645 96 320V241.891L188.219 288C199.406 293.594 211.719 296.406 224 296.406S248.594 293.594 259.781 288L352 241.891V320ZM352 206.109L245.469 259.375C232.031 266.094 215.969 266.094 202.531 259.375L96 206.109V192C96 174.355 110.355 160 128 160H320C337.645 160 352 174.355 352 192V206.109Z"/></svg>

<svg xmlns="http://www.w3.org/2000/svg" viewBox="0 0 448 512"><!--! Font Awesome Pro 6.3.0 by @fontawesome - https://fontawesome.com License - https://fontawesome.com/license (Commercial License) Copyright 2023 Fonticons, Inc. --><path d="M384 32H64C28.65 32 0 60.65 0 96v320c0 35.35 28.65 64 64 64h320c35.35 0 64-28.65 64-64V96C448 60.65 419.3 32 384 32zM416 416c0 17.64-14.36 32-32 32H64c-17.64 0-32-14.36-32-32V96c0-17.64 14.36-32 32-32h320c17.64 0 32 14.36 32 32V416zM320 128H128C92.65 128 64 156.7 64 192v128c0 35.35 28.65 64 64 64h192c35.35 0 64-28.65 64-64V192C384 156.7 355.3 128 320 128zM352 320c0 17.64-14.36 32-32 32H128c-17.64 0-32-14.36-32-32V241.9L188.2 288C199.4 293.6 211.7 296.4 224 296.4S248.6 293.6 259.8 288L352 241.9V320zM352 206.1l-106.5 53.27c-13.44 6.719-29.5 6.719-42.94 0L96 206.1V192c0-17.64 14.36-32 32-32h192c17.64 0 32 14.36 32 32V206.1z"/></svg>
